app/assets/icons/polaris/BlockquoteMajor.svg

<svg viewBox="0 0 20 20" xmlns="http://www.w3.org/2000/svg"><path d="M3 3.5a1 1 0 0 0-1 1v.5h.5a1.5 1.5 0 0 1 1.5 1.5v1a1.5 1.5 0 0 1-1.5 1.5h-1a1.5 1.5 0 0 1-1.5-1.5v-3a3 3 0 0 1 3-3v2zm5.5 1.5h-.5v-.5a1 1 0 0 1 1-1v-2a3 3 0 0 0-3 3v3a1.5 1.5 0 0 0 1.5 1.5h1a1.5 1.5 0 0 0 1.5-1.5v-1a1.5 1.5 0 0 0-1.5-1.5zm3.5 3a1 1 0 0 1 1-1h6a1 1 0 1 1 0 2h-6a1 1 0 0 1-1-1zm-8 3a1 1 0 1 0 0 2h15a1 1 0 1 0 0-2h-15zm-1 5a1 1 0 0 1 1-1h15a1 1 0 1 1 0 2h-15a1 1 0 0 1-1-1zm10-13a1 1 0 1 0 0 2h6a1 1 0 1 0 0-2h-6z"/></svg>

<svg viewBox="0 0 20 20" xmlns="http://www.w3.org/2000/svg"><path d="M3 3.5a1 1 0 0 0-1 1V5h.5A1.5 1.5 0 0 1 4 6.5v1A1.5 1.5 0 0 1 2.5 9h-1A1.5 1.5 0 0 1 0 7.5v-3a3 3 0 0 1 3-3v2zM8.5 5H8v-.5a1 1 0 0 1 1-1v-2a3 3 0 0 0-3 3v3A1.5 1.5 0 0 0 7.5 9h1A1.5 1.5 0 0 0 10 7.5v-1A1.5 1.5 0 0 0 8.5 5zM12 8a1 1 0 0 1 1-1h6a1 1 0 1 1 0 2h-6a1 1 0 0 1-1-1zm-8 3a1 1 0 1 0 0 2h15a1 1 0 1 0 0-2H4zm-1 5a1 1 0 0 1 1-1h15a1 1 0 1 1 0 2H4a1 1 0 0 1-1-1zM13 3a1 1 0 1 0 0 2h6a1 1 0 1 0 0-2h-6z"/></svg>
